X:1
T:[ID 1-2]
T:[ID 1-2]
T:Bezeichnung standardisiert: Menuett Menuet 18.
T:Urheber unbekannt Erstbeleg: vor 1767 (Datum in der schriftlichen Quelle) Datum in der hier transkribierten schriftlichen Quelle: 1792
C:Urheber unbekannt
C:Erstbeleg: vor 1767 (Datum in der schriftlichen Quelle)
C:Datum in der hier transkribierten schriftlichen Quelle: 1792
L:1/8
M:3/4
K:G
V:1 treble 
V:1
 G,B,DGBd | g2 bgaf | gdBGAF | G4 B2 | c2 C2 B,2 | A,4 B2 | c2 C2 B,2 | A,3 edc | B2 AGAF | G6 :: %10
 GBdB G2 | FAdA F2 | E2 gfed | ^cB A2 f2 | g2 G2 F2 | E4 f2 | g2 G2 F2 | E3 bag | f2 ede^c | d6 | %20
 gbgdBG | egecAF | BdcBAG | FE D2 B2 | c2 C2 B,2 | A,4 B2 | c2 C2 B,2 | A,3 edc | B2 AGAF | G6 :| %30

